X:1
T:Calder Fair
M:2/4
L:1/8
R:Reel
S:Howe - 1000 Jigs and Reels (c. 1867)
Z:AK/Fiddler's Companion
K:G
g/f/e/d/ gd | dd de/f/ | g/f/e/d/ gd | A/B/c/d/ ee :: d/g/g d/g/g ea ag/a/ |
b/a/g/f/ g/f/e/d/ | e/g/f/a/ gg :|
K:G Minor
b/a/g/a/ b/a/g/b/ | a/g/f/g/ a/g/f/g/ | b/a/g/a/ b/a/g/b/ | ad d2 :|

